src/assets/social/SocialYoutube.svg

<svg viewBox="0 0 24 24" xmlns="http://www.w3.org/2000/svg">
<path d="M23.4987 6.20267C23.2213 5.16267 22.4107 4.34667 21.376 4.06933C19.504 3.56267 12 3.56267 12 3.56267C12 3.56267 4.496 3.56267 2.624 4.06933C1.58933 4.34667 0.778667 5.168 0.501333 6.20267C1.01725e-07 8.08533 0 12.016 0 12.016C0 12.016 1.01725e-07 15.9467 0.501333 17.8293C0.778667 18.8693 1.58933 19.6533 2.624 19.9307C4.496 20.4373 12 20.4373 12 20.4373C12 20.4373 19.504 20.4373 21.376 19.9307C22.4107 19.6533 23.2213 18.8693 23.4987 17.8293C24 15.9467 24 12.016 24 12.016C24 12.016 24 8.08533 23.4987 6.20267ZM9.54667 15.584V8.448L15.8187 12.016L9.54667 15.584Z" />
</svg>

<svg xmlns="http://www.w3.org/2000/svg" viewBox="0 0 24 24"><path d="M23.499 6.203a3.01 3.01 0 0 0-2.123-2.134C19.504 3.563 12 3.563 12 3.563s-7.504 0-9.376.506A3.02 3.02 0 0 0 .501 6.203C0 8.085 0 12.016 0 12.016s0 3.93.501 5.813a2.969 2.969 0 0 0 2.123 2.102c1.872.506 9.376.506 9.376.506s7.504 0 9.376-.506a2.969 2.969 0 0 0 2.123-2.102C24 15.947 24 12.016 24 12.016s0-3.93-.501-5.813M9.547 15.584V8.448l6.272 3.568z"/></svg>
